!!!OTL: Mairoesleins Umzug. (?)
!!!ARE: Europa, Mitteleuropa, Deutschland
!!!SCT: A0497A
!!!TXL: @@DE
!!!YEM: Copyright 1995, estate of Helmut Schaffrath.
**kern	**text
*M3/2	*
*met(3)	*
*clefC3	*
*k[]	*
*G:mix	*
=1	=1
!LO:TX:a:t=mixolyd.	!
2ryy	.
2ryy	.
!LO:TX:a:t=Solo.	!
{2G	Gut
=2	=2
2G	He-
2G	-ni-
2G	-chen
=3	=3
1d	up
2d	dem
=4	=4
2c	ſcheyter-
2c	.
2d	-weg
=5	=5
1.e}	ſaß,
=6||	=6||
!LO:TX:a:t=Chor.	!
{2d	[Far
2c	in
2d	den
=7	=7
1e	Mey-
2d	-en!
=8	=8
2d	far
2c	in
2d	den
=9	=9
1f	mey-
4e	.
4d	.
=10	=10
1d	.
2c	.
=11	=11
1d}	-en!]
!LO:TX:a:t=Solo.	!
{2e	Biß
=12	=12
1f	daß
2f	es
=13	=13
1e	ſchier
2e	er-
=14	=14
1d	-fro-
2d	-ren
=15	=15
1c}	was.
!LO:TX:a:t=Chor.	!
{2c	[So
=16	=16
2d	fa-
2B	-ren
2c/	wir
=17	=17
*lig	*
2.d	aus
4c	.
*Xlig	*
*lig	*
4B	dem
4A	.
*Xlig	*
=18	=18
*lig	*
2G	mey-
1A	.
*Xlig	*
=19	=19
2G}	-en,
{2d	aus
2B	dem
=20	=20
2.c/	mey-
4B	-en
4A	in
4G	die
=21	=21
1.A	ro-
=22	=22
!LO:TX:a:t=P:1g in the source:problem	!
!LO:N:vis=1	!
1.G;}	-ſen!]
==	==
!!!GTL: Einige Kinder-Reime
!!!AGN: Romanze, Ballade, Lied
!! Forster II 1540 No. 46.
!!!ONB: ESAC (Essen Associative Code) Database: ALTDEU
!!!AMT: simple triple
!!!AIN: vox
!!!EED: Helmut Schaffrath
!!!EEV: 1.0
!!!RDF**kern: l = terminal long
!!!AMD: Mixolydian
!!!URL-scan: https://rosdok.uni-rostock.de/mcrviewer/recordIdentifier/rosdok_ppn738218359/iview2/phys_0681.iview2?x=-1272.8135649766991&y=181.17121083382517&scale=0.3197610882076923&rotation=0&layout=singlePageLayout&logicalDiv=log_0018
!!!ENC: Anna Maria Matuszewska
!!!EEV: 2024/19/03
*-	*-
